src/icons/svg/menu.svg

<?xml version="1.0" standalone="no"?><!DOCTYPE svg PUBLIC "-//W3C//DTD SVG 1.1//EN" "http://www.w3.org/Graphics/SVG/1.1/DTD/svg11.dtd"><svg t="1587114356540" class="icon" viewBox="0 0 1024 1024" version="1.1" xmlns="http://www.w3.org/2000/svg" p-id="6678" xmlns:xlink="http://www.w3.org/1999/xlink" width="128" height="128"><defs><style type="text/css"></style></defs><path d="M905.848832 706.56c22.84544 0 41.744384 18.75968 41.744384 41.603072 0 23.6032-18.898944 42.364928-41.744384 42.364928L301.010944 790.528c-22.833152 0-41.728-18.75968-41.728-42.364928 0-22.843392 18.896896-41.603072 41.728-41.603072L905.848832 706.56zM139.56096 215.488512c29.927424 0 53.557248 24.406016 53.557248 53.54496 0 29.927424-23.631872 53.559296-53.557248 53.559296C110.422016 322.592768 86.016 298.960896 86.016 269.033472 86.016 239.894528 110.422016 215.488512 139.56096 215.488512L139.56096 215.488512zM301.010944 317.44c-22.833152 0-41.728-19.13856-41.728-41.984s18.896896-41.984 41.728-41.984l604.837888 0c22.84544 0 41.744384 19.13856 41.744384 41.984s-18.898944 41.984-41.744384 41.984L301.010944 317.44zM301.010944 569.344c-22.833152 0-41.728-19.140608-41.728-41.984s18.896896-41.984 41.728-41.984l604.837888 0c22.84544 0 41.744384 19.140608 41.744384 41.984s-18.898944 41.984-41.744384 41.984L301.010944 569.344zM139.56096 458.835968c29.927424 0 53.557248 23.63392 53.557248 53.557248 0 29.140992-23.631872 53.557248-53.557248 53.557248C110.422016 565.950464 86.016 541.534208 86.016 512.393216 86.016 482.46784 110.422016 458.835968 139.56096 458.835968L139.56096 458.835968zM139.56096 701.407232c29.927424 0 53.557248 24.420352 53.557248 53.559296 0 29.925376-23.631872 53.54496-53.557248 53.54496C110.422016 808.511488 86.016 784.893952 86.016 754.968576 86.016 725.827584 110.422016 701.407232 139.56096 701.407232L139.56096 701.407232z" p-id="6679"></path></svg>

<svg class="icon" viewBox="0 0 1024 1024" xmlns="http://www.w3.org/2000/svg" width="128" height="128"><defs><style/></defs><path d="M905.849 706.56c22.845 0 41.744 18.76 41.744 41.603 0 23.603-18.899 42.365-41.744 42.365H301.01c-22.833 0-41.728-18.76-41.728-42.365 0-22.843 18.897-41.603 41.728-41.603h604.838zM139.56 215.489c29.927 0 53.557 24.406 53.557 53.544 0 29.928-23.632 53.56-53.557 53.56-29.139 0-53.545-23.632-53.545-53.56 0-29.138 24.406-53.544 53.545-53.544zM301.01 317.44c-22.833 0-41.728-19.139-41.728-41.984s18.897-41.984 41.728-41.984h604.838c22.845 0 41.744 19.139 41.744 41.984s-18.899 41.984-41.744 41.984H301.01zm0 251.904c-22.833 0-41.728-19.14-41.728-41.984s18.897-41.984 41.728-41.984h604.838c22.845 0 41.744 19.14 41.744 41.984s-18.899 41.984-41.744 41.984H301.01zM139.56 458.836c29.927 0 53.557 23.634 53.557 53.557 0 29.141-23.632 53.557-53.557 53.557-29.139 0-53.545-24.416-53.545-53.557 0-29.925 24.406-53.557 53.545-53.557zm0 242.571c29.927 0 53.557 24.42 53.557 53.56 0 29.925-23.632 53.544-53.557 53.544-29.139 0-53.545-23.617-53.545-53.542 0-29.141 24.406-53.562 53.545-53.562z"/></svg>
